Sources/FrostedUI/Resources/Icons.xcassets/questionCircle32.imageset/question-circle-32.svg

<svg width="32" height="32" viewBox="0 0 32 32" fill="none" xmlns="http://www.w3.org/2000/svg" data-fui-icon="true">
  <path
    d="M16 1C24.2843 1 31 7.71573 31 16C31 24.2843 24.2843 31 16 31C7.71573 31 1 24.2843 1 16C1 7.71573 7.71573 1 16 1ZM16 2.5C8.54416 2.5 2.5 8.54416 2.5 16C2.5 23.4558 8.54416 29.5 16 29.5C23.4558 29.5 29.5 23.4558 29.5 16C29.5 8.54416 23.4558 2.5 16 2.5ZM16 23C16.6904 23 17.25 23.5596 17.25 24.25C17.25 24.9404 16.6904 25.5 16 25.5C15.3096 25.5 14.75 24.9404 14.75 24.25C14.75 23.5596 15.3096 23 16 23ZM16 7C19.3137 7 22 9.68629 22 13C22 15.5263 20.4388 17.6864 18.2314 18.5713C17.328 18.9335 16.75 19.596 16.75 20.25C16.75 20.6642 16.4142 21 16 21C15.5858 21 15.25 20.6642 15.25 20.25C15.25 18.6949 16.5269 17.6385 17.6738 17.1787C19.3315 16.514 20.5 14.8925 20.5 13C20.5 10.5147 18.4853 8.5 16 8.5C13.5147 8.5 11.5 10.5147 11.5 13V13.25C11.5 13.6642 11.1642 14 10.75 14C10.3358 14 10 13.6642 10 13.25V13C10 9.68629 12.6863 7 16 7Z"
    fill="currentColor"
  />
</svg>

<svg xmlns="http://www.w3.org/2000/svg" width="32" height="32" fill="none" data-fui-icon="true" viewBox="0 0 32 32"><path fill="currentColor" d="M16 1c8.284 0 15 6.716 15 15s-6.716 15-15 15S1 24.284 1 16 7.716 1 16 1m0 1.5C8.544 2.5 2.5 8.544 2.5 16S8.544 29.5 16 29.5 29.5 23.456 29.5 16 23.456 2.5 16 2.5M16 23a1.25 1.25 0 1 1 0 2.5 1.25 1.25 0 0 1 0-2.5m0-16a6 6 0 0 1 2.231 11.571c-.903.362-1.481 1.025-1.481 1.679a.75.75 0 0 1-1.5 0c0-1.555 1.277-2.611 2.424-3.071A4.502 4.502 0 0 0 16 8.5a4.5 4.5 0 0 0-4.5 4.5v.25a.75.75 0 0 1-1.5 0V13a6 6 0 0 1 6-6"/></svg>
